X:1
T:Reel Eug\`ene
R:reel
Z:Transcribed to abc by Mary Lou Knack
M:C|
K:D
|:\
"Bm"B2Bc dcB2 | "Em"e2ef gece | "F#7"f2fg fece | fbbf bfdc |
"Bm"B2Bc dcB2 | "Em"e2ef gece | "F#7"f2fg fedc |1 "Bm"B4 "F#7"F4 :|2 "Bm"B4 "A7"A4 |]
|:\
"D"f2fe d2dB | AAdf "B7"b2f2 | "Em"a2ag "(A7)"e2 (3cdc | "A7"Aceg fdAd |
"D"f2fe d2dB | AAdf "B7"b2f2 | "Em"a2ag "A7"e2ce |1 "D"df"A"ec "D"d2de :|2 "D"df"A"ec "D"d2"A"c2 :|
